X: 23485
T: Lewis Proudlock's
R: hornpipe
M: 4/4
K: Gmajor
|:D2|G2GB A2Ac|Bdge d3c|BdBG AcAF|G2GA G2:|
Bc|dedc B2B2|cdcB A2A2|dedc B2B2|cdec AcBA|
G2GB A2Ac|Bdge d3c|BdBG AcAF|G2GA G2||

